img/icon-service-custom.svg

<?xml version="1.0" encoding="UTF-8"?>
<svg width="81px" height="65px" viewBox="0 0 81 65" version="1.1" xmlns="http://www.w3.org/2000/svg" xmlns:xlink="http://www.w3.org/1999/xlink">
    <!-- Generator: Sketch 44.1 (41455) - http://www.bohemiancoding.com/sketch -->
    <title>Shape</title>
    <desc>Created with Sketch.</desc>
    <defs></defs>
    <g id="Page-1" stroke="none" stroke-width="1" fill="none" fill-rule="evenodd">
        <path d="M68.9321248,1.482 L11.5475248,1.482 L1.24199143,19.9335632 L40.2419914,63.482 L79.0019248,20.2008689 L79.2419914,19.9335632 L68.9321248,1.482 Z M41.3911914,2.58034289 L67.2611914,2.58034289 L53.1986581,18.8919668 L41.3911914,2.58034289 Z M52.0026581,19.3168186 L28.4752581,19.3168186 L40.2419914,3.06866121 L52.0026581,19.3168186 Z M27.2801248,18.8919668 L13.2149914,2.58034289 L39.0919248,2.58034289 L27.2801248,18.8919668 Z M26.0581248,19.3168186 L3.00132476,19.3168186 L12.0649248,3.08882114 L26.0581248,19.3168186 Z M26.8329248,20.4159082 L38.8371248,60.1145449 L3.28385809,20.4159082 L26.8329248,20.4159082 Z M52.3276581,20.4159082 L40.2419914,60.4035039 L28.1511248,20.4159082 L52.3276581,20.4159082 Z M54.4215248,19.3168186 L68.4129914,3.08882114 L77.4835248,19.3168186 L54.4215248,19.3168186 Z M77.1992581,20.4159082 L41.6468581,60.1152916 L53.6449914,20.4159082 L77.1992581,20.4159082 Z" id="Shape" stroke="#3F51B5" stroke-width="2" fill="#3F51B5" fill-rule="nonzero"></path>
    </g>
</svg>

<svg width="81" height="65" viewBox="0 0 81 65" xmlns="http://www.w3.org/2000/svg">
    <path d="M68.932 1.482h-57.385l-10.306 18.452 39 43.548 38.76-43.281.24-.267-10.31-18.452zm-27.541 1.098h25.87l-14.063 16.312-11.807-16.312zm10.611 16.736h-23.527l11.767-16.248 11.761 16.248zm-24.723-.425l-14.065-16.312h25.877l-11.812 16.312zm-1.222.425h-23.057l9.064-16.228 13.993 16.228zm.775 1.099l12.004 39.699-35.553-39.699h23.549zm25.495 0l-12.086 39.988-12.091-39.988h24.177zm2.094-1.099l13.991-16.228 9.071 16.228h-23.062zm22.778 1.099l-35.552 39.699 11.998-39.699h23.554z"
          stroke="#ffa500" stroke-width="2" fill="#FFC107"/>
</svg>
